svg/weather/hail_fill.svg

<?xml version="1.0" encoding="UTF-8"?>
<svg width="24px" height="24px" viewBox="0 0 24 24" version="1.1" xmlns="http://www.w3.org/2000/svg" xmlns:xlink="http://www.w3.org/1999/xlink">
    <title>hail_fill</title>
    <g id="Icon" stroke="none" stroke-width="1" fill="none" fill-rule="evenodd">
        <g id="Weather" transform="translate(-289.000000, -144.000000)" fill-rule="nonzero">
            <g id="hail_fill" transform="translate(289.000000, 144.000000)">
                <path d="M24,0 L24,24 L0,24 L0,0 L24,0 Z M12.5935,23.2578 L12.5819,23.2595 L12.5109,23.295 L12.4919,23.2987 L12.4767,23.295 L12.4057,23.2595 C12.3958,23.2564 12.387,23.259 12.3821,23.2649 L12.378,23.2758 L12.3609,23.7031 L12.3659,23.7235 L12.3769,23.7357 L12.4805,23.8097 L12.4953,23.8136 L12.5071,23.8097 L12.6107,23.7357 L12.6233,23.7197 L12.6267,23.7031 L12.6096,23.2758 C12.6076,23.2657 12.601,23.2593 12.5935,23.2578 Z M12.8584,23.1453 L12.8445,23.1473 L12.6598,23.2397 L12.6499,23.2499 L12.6472,23.2611 L12.6651,23.6906 L12.6699,23.7034 L12.6784,23.7105 L12.8793,23.8032 C12.8914,23.8069 12.9022,23.803 12.9078,23.7952 L12.9118,23.7812 L12.8777,23.1665 C12.8753,23.1546 12.8674,23.147 12.8584,23.1453 Z M12.143,23.1473 C12.1332,23.1424 12.1222,23.1453 12.1156,23.1526 L12.1099,23.1665 L12.0758,23.7812 C12.0751,23.7927 12.0828,23.8019 12.0926,23.8046 L12.1083,23.8032 L12.3092,23.7105 L12.3186,23.7024 L12.3225,23.6906 L12.3404,23.2611 L12.3372,23.2485 L12.3278,23.2397 L12.143,23.1473 Z" id="MingCute"></path>
                <path d="M14,18 C15.1046,18 16,18.8954 16,20 C16,21.1046 15.1046,22 14,22 C12.8954,22 12,21.1046 12,20 C12,18.8954 12.8954,18 14,18 Z M9.5,17 C10.3284,17 11,17.6716 11,18.5 C11,19.3284 10.3284,20 9.5,20 C8.67157,20 8,19.3284 8,18.5 C8,17.6716 8.67157,17 9.5,17 Z M11.5,2 C14.2856,2 16.66,3.75154 17.5856,6.21198 C20.13,6.90766 22,9.23462 22,12 C22,14.8427 20.0232,17.2236 17.3692,17.8431 C17.3307,17.7831 17.2907,17.7242 17.2491,17.6664 C17.7194,17.0705 18,16.318 18,15.5 C18,13.567 16.433,12 14.5,12 C14.1667,12 13.8442,12.0466 13.5388,12.1336 C12.8682,10.8647 11.5351,10 10,10 C7.79086,10 6,11.7909 6,14 C6,14.8709 6.27833,15.6768 6.75088,16.3336 C6.39627,16.783 6.14948,17.3214 6.04956,17.9098 C3.74267,17.4658 2,15.4364 2,13 C2,10.9486 3.23468,9.18749 5.00053,8.41614 C5.04543,4.86494 7.93814,2 11.5,2 Z M14.5,14 C15.3284,14 16,14.6716 16,15.5 C16,16.3284 15.3284,17 14.5,17 C13.6716,17 13,16.3284 13,15.5 C13,14.6716 13.6716,14 14.5,14 Z M10,12 C11.1046,12 12,12.8954 12,14 C12,15.1046 11.1046,16 10,16 C8.89543,16 8,15.1046 8,14 C8,12.8954 8.89543,12 10,12 Z" id="形状" fill="#09244B"></path>
            </g>
        </g>
    </g>
</svg>

<svg xmlns="http://www.w3.org/2000/svg" width="24" height="24"><g fill="none" fill-rule="nonzero"><path d="M24 0v24H0V0h24ZM12.594 23.258l-.012.002-.071.035-.02.004-.014-.004-.071-.036c-.01-.003-.019 0-.024.006l-.004.01-.017.428.005.02.01.013.104.074.015.004.012-.004.104-.074.012-.016.004-.017-.017-.427c-.002-.01-.009-.017-.016-.018Zm.264-.113-.014.002-.184.093-.01.01-.003.011.018.43.005.012.008.008.201.092c.012.004.023 0 .029-.008l.004-.014-.034-.614c-.003-.012-.01-.02-.02-.022Zm-.715.002a.023.023 0 0 0-.027.006l-.006.014-.034.614c0 .012.007.02.017.024l.015-.002.201-.093.01-.008.003-.011.018-.43-.003-.012-.01-.01-.184-.092Z"/><path fill="#09244B" d="M14 18a2 2 0 1 1 0 4 2 2 0 0 1 0-4Zm-4.5-1a1.5 1.5 0 1 1 0 3 1.5 1.5 0 0 1 0-3Zm2-15a6.502 6.502 0 0 1 6.086 4.212 6.002 6.002 0 0 1-.217 11.631 4.004 4.004 0 0 0-.12-.177 3.5 3.5 0 0 0-3.71-5.533 4 4 0 1 0-6.788 4.2c-.355.45-.602.988-.701 1.577A5.002 5.002 0 0 1 5 8.416 6.5 6.5 0 0 1 11.5 2Zm3 12a1.5 1.5 0 1 1 0 3 1.5 1.5 0 0 1 0-3ZM10 12a2 2 0 1 1 0 4 2 2 0 0 1 0-4Z"/></g></svg>
